X: 10995
T: Drunken Man's Frolic
R: jig
M: 6/8
K: Gmajor
GBd ~g3|faf g2e|def gfe|ddB A2B|
GBd ~g3|faf g2e|faf gfe|dBA A2B:|
|:GAB dcB|edc dcB|GAB dcB|ddB A2B|
GAB dcB|gfe deg|faf gfe|dBA A2B:|

